polaris-icons/icons/ProductListIcon.svg

<svg xmlns="http://www.w3.org/2000/svg" viewBox="0 0 20 20"><path d="M10.7239 3C9.70483 3 8.72962 3.41477 8.02273 4.14885L3.76912 8.56605C2.72965 9.6455 2.74582 11.3585 3.80546 12.4181L7.91767 16.5303C8.21057 16.8232 8.68544 16.8232 8.97833 16.5303C9.27123 16.2374 9.27123 15.7626 8.97833 15.4697L4.86612 11.3575C4.38446 10.8758 4.37712 10.0972 4.8496 9.60652L9.10321 5.18931C9.52734 4.74886 10.1125 4.5 10.7239 4.5H12.698C13.6645 4.5 14.448 5.2835 14.448 6.25V8.62148C14.448 8.97901 14.3025 9.32114 14.045 9.56913C13.7466 9.85645 13.7376 10.3312 14.025 10.6296C14.3123 10.928 14.7871 10.9369 15.0854 10.6496C15.6366 10.1189 15.948 9.38665 15.948 8.62148V6.25C15.948 4.45507 14.4929 3 12.698 3H10.7239Z"/>
<path d="M12.448 7.5C13.0003 7.5 13.448 7.05228 13.448 6.5C13.448 5.94772 13.0003 5.5 12.448 5.5C11.8957 5.5 11.448 5.94772 11.448 6.5C11.448 7.05228 11.8957 7.5 12.448 7.5Z"/>
<path d="M11 12.75C11 12.3358 11.3358 12 11.75 12H16.25C16.6642 12 17 12.3358 17 12.75C17 13.1642 16.6642 13.5 16.25 13.5H11.75C11.3358 13.5 11 13.1642 11 12.75Z"/>
<path d="M11 15.75C11 15.3358 11.3358 15 11.75 15H16.25C16.6642 15 17 15.3358 17 15.75C17 16.1642 16.6642 16.5 16.25 16.5H11.75C11.3358 16.5 11 16.1642 11 15.75Z"/>
</svg>

<svg xmlns="http://www.w3.org/2000/svg" viewBox="0 0 20 20"><path d="M10.724 3c-1.02 0-1.994.415-2.701 1.149l-4.254 4.417c-1.04 1.08-1.023 2.792.036 3.852l4.113 4.112c.293.293.767.293 1.06 0 .293-.293.293-.767 0-1.06l-4.112-4.113c-.482-.481-.489-1.26-.016-1.75l4.253-4.418c.424-.44 1.01-.689 1.62-.689h1.975c.966 0 1.75.784 1.75 1.75v2.371c0 .358-.146.7-.403.948-.298.287-.307.762-.02 1.06.287.299.762.308 1.06.02.552-.53.863-1.262.863-2.028v-2.371c0-1.795-1.455-3.25-3.25-3.25h-1.974Z"/><path d="M12.448 7.5c.552 0 1-.448 1-1s-.448-1-1-1-1 .448-1 1 .448 1 1 1Z"/><path d="M11 12.75c0-.414.336-.75.75-.75h4.5c.414 0 .75.336.75.75s-.336.75-.75.75h-4.5c-.414 0-.75-.336-.75-.75Z"/><path d="M11 15.75c0-.414.336-.75.75-.75h4.5c.414 0 .75.336.75.75s-.336.75-.75.75h-4.5c-.414 0-.75-.336-.75-.75Z"/></svg>
